apps/block_scout_web/assets/static/images/tomochain_logo.svg

<svg height="60" viewBox="0 0 60 60" width="60" xmlns="http://www.w3.org/2000/svg"><g fill="#fff"><path d="m30 .5a29.52 29.52 0 0 0 -28 38.84 1.75 1.75 0 0 0 3.32-1.11 26 26 0 1 1 17.68 16.82 1.75 1.75 0 1 0 -.94 3.38 29.5 29.5 0 1 0 7.94-57.93z"/><path d="m33.72 51.88a22.23 22.23 0 0 0 17.52-15.42 1.75 1.75 0 0 0 -3.35-1 18.67 18.67 0 1 1 -3.38-17.26 1.75 1.75 0 0 0 2.71-2.2 22.2 22.2 0 1 0 -17.22 36.2 22.49 22.49 0 0 0 3.72-.32z"/><path d="m30.58 41.68a8.19 8.19 0 0 0 6.73-3.53 1.75 1.75 0 1 0 -2.88-2 4.67 4.67 0 0 1 -8.52-2.65v-8.17h9.93a1.75 1.75 0 1 0 0-3.5h-9.93v-2.93a1.75 1.75 0 1 0 -3.5 0v2.92h-2.92a1.75 1.75 0 0 0 0 3.5h2.92v8.18a8.19 8.19 0 0 0 8.17 8.18z"/></g></svg>

<svg xmlns="http://www.w3.org/2000/svg" width="60" height="60" viewBox="0 0 60 60">
  <defs>
    <style>
      .a {
        fill: #fff;
      }
    </style>
  </defs>
  <title>Artboard 8 copy</title>
  <g>
    <path class="a" d="M30,.5A29.52,29.52,0,0,0,2,39.34a1.75,1.75,0,0,0,3.32-1.11A26,26,0,1,1,23,55.05a1.75,1.75,0,1,0-.94,3.38A29.5,29.5,0,1,0,30,.5Z"/>
    <path class="a" d="M33.72,51.88A22.23,22.23,0,0,0,51.24,36.46a1.75,1.75,0,0,0-3.35-1A18.67,18.67,0,1,1,44.51,18.2,1.75,1.75,0,0,0,47.22,16,22.2,22.2,0,1,0,30,52.2,22.49,22.49,0,0,0,33.72,51.88Z"/>
    <path class="a" d="M30.58,41.68a8.19,8.19,0,0,0,6.73-3.53,1.75,1.75,0,1,0-2.88-2,4.67,4.67,0,0,1-8.52-2.65V25.33h9.93a1.75,1.75,0,1,0,0-3.5H25.91V18.9a1.75,1.75,0,1,0-3.5,0v2.92H19.49a1.75,1.75,0,0,0,0,3.5h2.92V33.5A8.19,8.19,0,0,0,30.58,41.68Z"/>
  </g>
</svg>
